papirus/22x22/apps/password-manager.svg

<svg height="22" viewBox="0 0 44 44.000001" width="22" xmlns="http://www.w3.org/2000/svg"><g transform="translate(-2 -2)"><path d="m14 12a12 12 0 0 0 -12 12 12 12 0 0 0  12 12 12 12 0 0 0  11.296876-8h8.703124v6h8v-6h4v-8h-20.699218a12 12 0 0 0 -11.300782-8z" fill="#4bae4f"/><circle cx="14" cy="25" opacity=".2" r="4"/><circle cx="14" cy="24" fill="#f9f9f9" r="4"/><path d="m14 12a12 12 0 0 0 -12 12 12 12 0 0 0  .01954.421876 12 12 0 0 1  11.98046-11.425782 12 12 0 0 1  11.300782 8h20.699218v-.996094h-20.699218a12 12 0 0 0 -11.300782-8z" fill="#fff" opacity=".2"/><path d="m2.0195312 23.429688a12 12 0 0 0 -.0195312.570312 12 12 0 0 0  12 12 12 12 0 0 0  11.296876-8h8.703124v-1h-8.703124a12 12 0 0 1 -11.296876 8 12 12 0 0 1 -11.9804688-11.570312zm39.9804688 3.570312v1h4v-1zm-8 6v1h8v-1z" opacity=".3"/></g></svg>

<?xml version="1.0" encoding="UTF-8" standalone="no"?>
<!-- Created with Inkscape (http://www.inkscape.org/) -->

<svg
   xmlns:dc="http://purl.org/dc/elements/1.1/"
   xmlns:cc="http://creativecommons.org/ns#"
   xmlns:rdf="http://www.w3.org/1999/02/22-rdf-syntax-ns#"
   xmlns:svg="http://www.w3.org/2000/svg"
   xmlns="http://www.w3.org/2000/svg"
   xmlns:sodipodi="http://sodipodi.sourceforge.net/DTD/sodipodi-0.dtd"
   xmlns:inkscape="http://www.inkscape.org/namespaces/inkscape"
   id="svg4231"
   height="22"
   width="22"
   version="1.1"
   viewBox="0 0 44 44.000001"
   inkscape:version="0.91 r13725"
   sodipodi:docname="password-manager.svg">
  <defs
     id="defs12" />
  <sodipodi:namedview
     pagecolor="#ffffff"
     bordercolor="#666666"
     borderopacity="1"
     objecttolerance="10"
     gridtolerance="10"
     guidetolerance="10"
     inkscape:pageopacity="0"
     inkscape:pageshadow="2"
     inkscape:window-width="1600"
     inkscape:window-height="849"
     id="namedview10"
     showgrid="false"
     inkscape:zoom="1"
     inkscape:cx="-208.52542"
     inkscape:cy="12"
     inkscape:window-x="0"
     inkscape:window-y="0"
     inkscape:window-maximized="1"
     inkscape:current-layer="svg4231" />
  <metadata
     id="metadata4236">
    <rdf:RDF>
      <cc:Work
         rdf:about="">
        <dc:format>image/svg+xml</dc:format>
        <dc:type
           rdf:resource="http://purl.org/dc/dcmitype/StillImage" />
        <dc:title></dc:title>
      </cc:Work>
    </rdf:RDF>
  </metadata>
  <g
     id="g4137"
     transform="translate(-2,-2)">
    <path
       inkscape:connector-curvature="0"
       id="rect4345"
       d="M 14,12 A 12,12 0 0 0 2,24 12,12 0 0 0 14,36 12,12 0 0 0 25.296876,28 L 34,28 l 0,6 8,0 0,-6 4,0 0,-8 -20.699218,0 A 12,12 0 0 0 14,12 Z"
       style="opacity:1;fill:#4bae4f;fill-opacity:1;stroke:none;stroke-width:8;stroke-linecap:round;stroke-linejoin:miter;stroke-miterlimit:4;stroke-dasharray:none;stroke-opacity:1" />
    <circle
       r="4"
       cy="25"
       cx="14"
       id="circle4359"
       style="opacity:0.2;fill:#000000;fill-opacity:1;stroke:none;stroke-width:8;stroke-linecap:round;stroke-linejoin:miter;stroke-miterlimit:4;stroke-dasharray:none;stroke-opacity:1" />
    <circle
       style="opacity:1;fill:#f9f9f9;fill-opacity:1;stroke:none;stroke-width:8;stroke-linecap:round;stroke-linejoin:miter;stroke-miterlimit:4;stroke-dasharray:none;stroke-opacity:1"
       id="circle4351"
       cx="14"
       cy="24"
       r="4" />
    <path
       id="path4415"
       d="M 14,12 A 12,12 0 0 0 2,24 12,12 0 0 0 2.01954,24.421876 12,12 0 0 1 14,12.996094 a 12,12 0 0 1 11.300782,8 L 46,20.996094 46,20 25.300782,20 A 12,12 0 0 0 14,12 Z"
       style="opacity:0.2;fill:#ffffff;fill-opacity:1;stroke:none;stroke-width:8;stroke-linecap:round;stroke-linejoin:miter;stroke-miterlimit:4;stroke-dasharray:none;stroke-opacity:1"
       inkscape:connector-curvature="0" />
    <path
       inkscape:connector-curvature="0"
       id="rect4395"
       d="M 2.0195312,23.429688 A 12,12 0 0 0 2,24 12,12 0 0 0 14,36 12,12 0 0 0 25.296876,28 L 34,28 34,27 25.296876,27 A 12,12 0 0 1 14,35 12,12 0 0 1 2.0195312,23.429688 Z M 42,27 l 0,1 4,0 0,-1 -4,0 z m -8,6 0,1 8,0 0,-1 -8,0 z"
       style="opacity:0.3;fill:#000000;fill-opacity:1;stroke:none;stroke-width:8;stroke-linecap:round;stroke-linejoin:miter;stroke-miterlimit:4;stroke-dasharray:none;stroke-opacity:1" />
  </g>
</svg>
